!!!OTL: Wie soll ich tun? (3-87), S. 240
!!!id: P1060
**kern
*clefG2
*k[f#]
*G:
{8d
=1
8d
8g
8g
8e
=2
8e
8d
4d}
=3
{4a
8f#
8d
=4
4d
8d
8d
=5
4dd
8b
8a
=6
4g}
8r
=7
{8a
=8
8.a
16b
8.a
16b
=9
8a
8a
8a
8a
=10
4a}
4r
=11
{8a
8g
8f#
8e
=12
8d
8d
4d}
=13
{4g
8g
8g
=14
4a
8b
8g
=15
4dd
8b
8a
=16
4g}
8r
==
*-
!!!minrhy: 16
!!!meters: 2/4 ]  ZZ[5
!!!cut: Wie soll ich tun? (3-87), S. 240
!!!reg: Lothringen
!!!trd: PINCK, Louis: Verklingende Weisen, Bd3, Metz 1933
!!!rhy1: X_  X_X_X_X_  X_X_X__   (x2)
!!!rhy2: X__X_X_  X__X_X_  X__X_X_  X__0
!!!key: P1060  16  G 2/4 ]  ZZ[5
!!!mod: SECHSTONSKALA DUR ?]  AMBITUS[8
!!!kad: -512-51
!!!akz: -5-6_2-551_222_2-5_1251_
!!!fot: 'a__b__c__bv_d__
!!!for: 'a__b__c__av_b__
!!!fok: '^__\__-__\__^__
!! PHRAS[GEMISCHTTAKTIG]
!!!fkt: Fenstergangslied
!! LOTH VKL
!! PR[11] 2K[4] 2G[4] 3K[9] 3G[11] 4A[7] 4Ü[0] 5A[0] 6K[0] 6G[0]
!! 7K[2] 7G[0] 8A[0] MEHR[0] SI[38] ABS[45] SR[9] SP[29]
!! ST[12] 2k[7] 2g[29] 3k[9] 3g[0] 4d[4] 4ü[0] 5d[2] 6k[0] 6g[0]
!! 7k[0] 7g[0] 8d[0] mehr[0] si[51] dm[-13] sr[36] sp[16]
!! 1F[2] 2F[20] 3F[66] 4F[6] LF[0] 2P[2] 3P[4] 4P[0] TRI[0] DF[6] AB[50]
!! TF[0] U3K[0] U3[0] U4[0] U4Ü[0] U5[9] U6K[0] U6[0] U7K[0] U7[0]
!! N1[13] N2K[0] N2[17] N3K[0] N3[26] N4[15] N4Ü[0] N5[15] N6K[0] N6[4]
!!!n7k: 0] N7[0] O1[0] O2K[0] O2[0] O3K[0] O3[0] HÖ[0
